dist/svg/detail.svg

<!-- Generated by Trend Micro Style Portal -->
<svg version="1.1" xmlns="http://www.w3.org/2000/svg" width="16" height="16" viewBox="0 0 16 16">
  <title>detail</title>
  <path fill="rgb(34,34,34)" d="M15 1h-14c-0.552 0-1 0.448-1 1v0 12c0 0.552 0.448 1 1 1v0h14c0.552 0 1-0.448 1-1v0-12c0-0.552-0.448-1-1-1v0zM15 14h-14v-11h14v11zM14 7h-5v-1h5v1zM14 9h-5v-1h5v1zM14 11h-5v-1h5v1zM5 11l-3-5h6z"></path>
</svg>

<svg width="16" height="16" viewBox="0 0 16 16" fill="rgb(34, 34, 34)" xmlns="http://www.w3.org/2000/svg"><title>detail</title><path d="M15 1H1C0.448 1 0 1.448 0 2V14C0 14.552 0.448 15 1 15H15C15.552 15 16 14.552 16 14V2C16 1.448 15.552 1 15 1ZM15 14H1V3H15V14ZM14 7H9V6H14V7ZM14 9H9V8H14V9ZM14 11H9V10H14V11ZM5 11L2 6H8L5 11Z" fill="rgb(34, 34, 34)" fill-opacity="1.00"/></svg>
